packages/match-icons/product/svg/proxy.svg

<svg fill="none" height="32" viewBox="0 0 32 32" width="32" xmlns="http://www.w3.org/2000/svg" xmlns:xlink="http://www.w3.org/1999/xlink"><clipPath id="a"><path d="m0 0h32v32h-32z"/></clipPath><g clip-path="url(#a)"><path d="m29.5 6.00001h-3.5v-3.13c.0011-.36259-.0963-.71867-.2819-1.03016-.1857-.31148-.4525-.56663-.7719-.73817-.3195-.171543-.6796-.253009-1.0417-.235688-.3622.017322-.7129.13278-1.0145.334018l-1.89 1.26-5.3 3.54h-13.2c-.66304 0-1.29893.2634-1.767767.73224-.468841.46884-.732233 1.10472-.732233 1.76776v14.99999c0 .6631.263392 1.2989.732233 1.7678.468837.4688 1.104727.7322 1.767767.7322h3.5v3.13c-.00085.3635.09739.7204.28415 1.0322.18677.3119.45499.567.77585.7378.29076.1499.6129.2287.94.23.39445.0019.78064-.1129 1.11-.33l7.19-4.8h13.2c.663 0 1.2989-.2634 1.7678-.7322.4688-.4689.7322-1.1047.7322-1.7678v-14.99999c0-.66304-.2634-1.29892-.7322-1.76776-.4689-.46884-1.1048-.73224-1.7678-.73224zm-8.5-1.13 3-2v3.13h-4.7zm3 3.13v9.92999c-.0009.1647-.0424.3267-.1209.4715s-.1915.2679-.3291.3585l-2.55 1.7-5.3 3.54h-7.7v-9.93c.00085-.1647.04237-.3266.12088-.4714.0785-.1448.19156-.268.32912-.3586l7.85-5.23999zm-21.5 15.99999c-.13261 0-.25979-.0527-.35355-.1464-.09377-.0938-.14645-.221-.14645-.3536v-14.99999c0-.1326.05268-.25978.14645-.35355.09376-.09377.22094-.14645.35355-.14645h10.2l-5.36 3.56999c-.41224.2739-.75032.6454-.98413 1.0816-.2338.4362-.35605.9235-.35587 1.4184v9.93zm5.5 5.13v-3.13h4.7zm22-5.63c0 .1326-.0527.2598-.1464.3536-.0938.0937-.221.1464-.3536.1464h-10.2l1.7-1.13 3.66-2.44c.4122-.2738.7503-.6454.9841-1.0816s.3561-.9235.3559-1.4184v-9.92999h3.5c.1326 0 .2598.05268.3536.14645.0937.09377.1464.22095.1464.35355z" fill="#394762"/></g></svg>

<svg width="32" height="32" viewBox="0 0 32 32" fill="none" xmlns="http://www.w3.org/2000/svg">
<g clip-path="url(#clip0)">
<path d="M29.5 6.00001H26V2.87001C26.0011 2.50742 25.9037 2.15134 25.7181 1.83985C25.5324 1.52837 25.2656 1.27322 24.9462 1.10168C24.6267 0.930137 24.2666 0.848671 23.9045 0.865992C23.5423 0.883314 23.1916 0.998772 22.89 1.20001L21 2.46001L15.7 6.00001H2.5C1.83696 6.00001 1.20107 6.26341 0.732233 6.73225C0.263392 7.20109 0 7.83697 0 8.50001L0 23.5C0 24.1631 0.263392 24.7989 0.732233 25.2678C1.20107 25.7366 1.83696 26 2.5 26H6V29.13C5.99915 29.4935 6.09739 29.8504 6.28415 30.1622C6.47092 30.4741 6.73914 30.7292 7.06 30.9C7.35076 31.0499 7.6729 31.1287 8 31.13C8.39445 31.1319 8.78064 31.0171 9.11 30.8L16.3 26H29.5C30.163 26 30.7989 25.7366 31.2678 25.2678C31.7366 24.7989 32 24.1631 32 23.5V8.50001C32 7.83697 31.7366 7.20109 31.2678 6.73225C30.7989 6.26341 30.163 6.00001 29.5 6.00001ZM21 4.87001L24 2.87001V6.00001H19.3L21 4.87001ZM24 8.00001V17.93C23.9991 18.0947 23.9576 18.2567 23.8791 18.4015C23.8006 18.5463 23.6876 18.6694 23.55 18.76L21 20.46L15.7 24H8V14.07C8.00085 13.9053 8.04237 13.7434 8.12088 13.5986C8.19938 13.4538 8.31244 13.3306 8.45 13.24L16.3 8.00001H24ZM2.5 24C2.36739 24 2.24021 23.9473 2.14645 23.8536C2.05268 23.7598 2 23.6326 2 23.5V8.50001C2 8.36741 2.05268 8.24023 2.14645 8.14646C2.24021 8.05269 2.36739 8.00001 2.5 8.00001H12.7L7.34 11.57C6.92776 11.8439 6.58968 12.2154 6.35587 12.6516C6.12207 13.0878 5.99982 13.5751 6 14.07V24H2.5ZM8 29.13V26H12.7L8 29.13ZM30 23.5C30 23.6326 29.9473 23.7598 29.8536 23.8536C29.7598 23.9473 29.6326 24 29.5 24H19.3L21 22.87L24.66 20.43C25.0722 20.1562 25.4103 19.7846 25.6441 19.3484C25.8779 18.9122 26.0002 18.4249 26 17.93V8.00001H29.5C29.6326 8.00001 29.7598 8.05269 29.8536 8.14646C29.9473 8.24023 30 8.36741 30 8.50001V23.5Z" fill="#394762"/>
</g>
<defs>
<clipPath id="clip0">
<rect width="32" height="32" fill="white"/>
</clipPath>
</defs>
</svg>
